X: 1
T:My Love She's But A Lassie Yet
M:C|
L:1/8
Q:80
C:Burns Set
S:March
K:HP
|: {g}f3/4e/4|
{Gdc}d{e}A{g}G{d}A|
{Gdc}d{e}A{GAG}A/2{g}f3/4e/4|  !
{Gdc}d{e}A{g}G{d}A|
{gBd}Be{A}e{g}f3/4e/4|
{Gdc}d{e}A{gBd}B{e}G|  !
{gAd}A{gf}g{fg}f3/2e/2|
{gde}d3/4c/4{g}B/4{d}A3/4{g}B3/4c/4{g}d3/4e/4|
{gfg}fd{gdc}d:| |:  !
{gf}g|
{ag}a3/2f/2{gf}g3/2e/2|
{gfg}fd{gdc}d{gf}g|  !
{ag}a3/2f/2{gf}gf/2|
{gef}e{g}A{GAG}A{gf}g|
{ag}a3/2f/2{gf}g3/2e/2|  !
{gfg}fd{gef}ec|
{gde}d3/4c/4{g}B/4{d}A3/4{g}B3/4c/4{g}d3/4e/4|
{gfg}fd{gdc}d:|  !
